local/share/icons/dracula-icons-main/scalable/apps/wxcas.svg

<?xml version="1.0" encoding="UTF-8"?>
<svg xmlns="http://www.w3.org/2000/svg" xmlns:xlink="http://www.w3.org/1999/xlink" width="64" height="64" viewBox="0 0 64 64">
<defs>
<filter id="filter-remove-color" x="0%" y="0%" width="100%" height="100%">
<feColorMatrix color-interpolation-filters="sRGB" values="0 0 0 0 1 0 0 0 0 1 0 0 0 0 1 0 0 0 1 0" />
</filter>
<mask id="mask-0">
<g filter="url(#filter-remove-color)">
<rect x="-6.4" y="-6.4" width="76.8" height="76.8" fill="rgb(0%, 0%, 0%)" fill-opacity="0.15"/>
</g>
</mask>
<clipPath id="clip-0">
<rect x="0" y="0" width="17" height="17"/>
</clipPath>
<g id="source-322" clip-path="url(#clip-0)">
<path fill-rule="nonzero" fill="rgb(100%, 100%, 100%)" fill-opacity="1" d="M 14.546875 8.460938 C 14.546875 11.816406 11.824219 14.539062 8.464844 14.539062 C 5.109375 14.539062 2.386719 11.816406 2.386719 8.460938 C 2.386719 5.101562 5.109375 2.382812 8.464844 2.382812 C 11.824219 2.382812 14.546875 5.101562 14.546875 8.460938 Z M 14.546875 8.460938 "/>
</g>
</defs>
<path fill-rule="nonzero" fill="rgb(30.588235%, 60%, 95.294118%)" fill-opacity="1" d="M 15.609375 8.460938 C 15.609375 12.40625 12.410156 15.605469 8.464844 15.605469 C 4.519531 15.605469 1.324219 12.40625 1.324219 8.460938 C 1.324219 4.515625 4.519531 1.316406 8.464844 1.316406 C 12.410156 1.316406 15.609375 4.515625 15.609375 8.460938 Z M 15.609375 8.460938 "/>
<g mask="url(#mask-0)">
<use xlink:href="#source-322"/>
</g>
<path fill-rule="nonzero" fill="rgb(100%, 100%, 100%)" fill-opacity="1" d="M 7.40625 5.027344 L 6.085938 8.203125 L 3.175781 8.203125 L 3.175781 8.730469 L 6.480469 8.730469 L 7.40625 6.480469 L 9.523438 11.90625 L 10.847656 8.730469 L 13.757812 8.730469 L 13.757812 8.203125 L 10.449219 8.203125 L 9.523438 10.449219 Z M 7.40625 5.027344 "/>
</svg>

<?xml version="1.0" encoding="UTF-8"?>
<svg width="64" height="64" version="1.1" viewBox="0 0 16.933 16.933" xmlns="http://www.w3.org/2000/svg" xmlns:cc="http://creativecommons.org/ns#" xmlns:dc="http://purl.org/dc/elements/1.1/" xmlns:rdf="http://www.w3.org/1999/02/22-rdf-syntax-ns#">
 <metadata>
  <rdf:RDF>
   <cc:Work rdf:about="">
    <dc:format>image/svg+xml</dc:format>
    <dc:type rdf:resource="http://purl.org/dc/dcmitype/StillImage"/>
    <dc:title/>
   </cc:Work>
  </rdf:RDF>
 </metadata>
 <circle cx="8.4665" cy="8.46" r="7.1436" fill="#4e99f3" style="paint-order:stroke markers fill"/>
 <circle cx="8.4665" cy="8.46" r="6.0788" fill="#fff" opacity=".15" stroke-width=".85094" style="paint-order:stroke markers fill"/>
 <path d="m7.4082 5.027-1.3229 3.1749h-2.9104v0.52916h3.3072l0.92602-2.2489 2.1166 5.4239 1.3229-3.1749h2.9104v-0.52916h-3.3072l-0.92602 2.2489z" fill="#fff" stroke-width=".26458"/>
</svg>
